!!!OTL: Alter Sommerwendfest - Tanz. (?)
!!!ARE: Europa, Mitteleuropa, Deutschland
!!!SCT: A0310B
!!!TXO: @@NLD
!!!YEM: Copyright 1995, estate of Helmut Schaffrath.
**kern
*M4/2
*met(c|)
*k[b-]
*g:dor
!LO:TX:a:t=dor.
!LO:TX:a:t=P:note in parenthesis:problem
{4g
=1
2.g
4g
2g
2g
=2
2.b-
4b-
2b-}
{2b-
=3
2.g
4g
2a
2g
=4
1f#i
1g
=5
2r}
{2g
2.a
4b-/
=6
2cc
2cc
2.b-
4a
=7
2b-}
{2b-
2f
2f
=8
2b-/
2b-/
2a
2a
=9
2.b-/}
{4b-/
2a
2g
=10
2a
2g
1f#i
=11
[1.g/ll
4g]}
==
!!!GTL: Tanz- und Kranzlieder
!!!AGN: Romanze, Ballade, Lied
!! Souterliedekens 1540 ad Ps. 125
!!!ONB: ESAC (Essen Associative Code) Database: ALTDEU
!!!AMT: simple quadruple
!!!AIN: vox
!!!EED: Helmut Schaffrath
!!!EEV: 1.0
!!!RDF**kern: i = editorial accidental
!!!RDF**kern: l = terminal long
!!!AMD: Dorian
!!!URL-scan: https://rosdok.uni-rostock.de/mcrviewer/recordIdentifier/rosdok_ppn738218359/iview2/phys_0464.iview2?x=-495.6391625615763&y=544.3448275856208&scale=0.4629418472063854&rotation=0&layout=singlePageLayout&logicalDiv=log_0012
!!!ENC: Anna Maria Matuszewska
!!!EEV: 2024/12/03
*-
